X: 1
T:Brian O'Lynn
C:Trad
R:Jig
M:6/8
K:CDor
Z:From eg Arty McGlynn 'McGlynn's Fancy'
Z:There is a tune in O'Neills by the same name,
Z:but it's a different one.
Z:Cm's not a very nice key. We play it in Am.
L:1/8
 gf |: ecc ecc | BGG Bcd | ecc cdB | cff fgf |
      ecc ecc | BGG Bcd | efg bgf |1 ecc cgf :|2 ecc c3 |
|: gab gc'c' | bgf ecc | gab c'3 | c'd'b c'3 |
gab c'd'c' | bgf ecc | efg bgf | ecc c3 :|
